; generated by PrusaSlicer 2.5.0+MacOS-x64 on 2023-04-17 at 00:20:08 UTC

; 

; external perimeters extrusion width = 0.42mm
; perimeters extrusion width = 0.44mm
; infill extrusion width = 0.44mm
; solid infill extrusion width = 0.44mm
; top infill extrusion width = 0.40mm
; first layer extrusion width = 0.42mm

; external perimeters extrusion width = 0.42mm
; perimeters extrusion width = 0.44mm
; infill extrusion width = 0.44mm
; solid infill extrusion width = 0.44mm
; top infill extrusion width = 0.40mm
; first layer extrusion width = 0.42mm

M107
;TYPE:Custom
G90 ; use absolute coordinates
M83 ; extruder relative mode
M140 S60 ; set final bed temp
M104 S150 ; set temporary nozzle temp to prevent oozing during homing
G4 S10 ; allow partial nozzle warmup
G28 ; home all axis
G29 ; ABL
G1 Z50 F240
G1 X2 Y10 F3000
M104 S205 ; set final nozzle temp
M190 S60 ; wait for bed temp to stabilize
M109 S205 ; wait for nozzle temp to stabilize
G1 Z0.28 F240
G92 E0
G1 Y140 E10 F1500 ; prime the nozzle
G1 X2.3 F5000
G92 E0
G1 Y10 E10 F1200 ; prime the nozzle
G92 E0
G21 ; set units to millimeters
G90 ; use absolute coordinates
M83 ; use relative distances for extrusion
; Filament gcode
M107
;LAYER_CHANGE
;Z:0.2
;HEIGHT:0.2
;BEFORE_LAYER_CHANGE
G92 E0
;0.2


G1 E-5 F3600
G1 Z.2 F9000
;AFTER_LAYER_CHANGE
;0.2
G1 X90.467 Y91.552
G1 E5 F2400
M204 S500
;TYPE:Skirt/Brim
;WIDTH:0.42
G1 F1800
G1 X92.36 Y90.972 E.06207
G1 X127.138 Y90.972 E1.09046
G1 X128.598 Y91.304 E.04693
G1 X158.532 Y105.651 E1.0408
G1 X159.789 Y106.691 E.05115
G1 X160.449 Y108.696 E.06621
G1 X160.449 Y138.296 E.92809
G1 X160.055 Y139.879 E.05115
G1 X158.965 Y141.093 E.05115
G1 X157.146 Y141.673 E.05985
G1 X105.484 Y142.798 E1.62022
G1 X104.127 Y142.607 E.04294
G1 X102.789 Y142.058 E.04537
G1 X101.689 Y141.241 E.04294
G1 X100.777 Y140.118 E.04537
G1 X100.402 Y139.404 E.02528
G1 X100.154 Y138.719 E.02287
G1 X89.112 Y99.962 E1.26356
G1 X88.982 Y99.036 E.02929
G1 X88.982 Y94.349 E.14697
G1 X89.377 Y92.766 E.05115
G1 X90.427 Y91.597 E.04927
; printing object ProjectionBox.stl id:0 copy 0
G1 E-3.5 F3600
;WIPE_START
G1 F7200
G1 X92.36 Y90.972 E-.96489
G1 X93.328 Y90.972 E-.46011
;WIPE_END
G1 E-.075 F3600
G1 X97.804 Y97.996 F9000
G1 E5 F2400
;TYPE:Perimeter
;WIDTH:0.419999
G1 F1800
G1 X97.659 Y97.972 E.0046
G1 X93.424 Y97.972 E.13281
G1 X93.424 Y95.413 E.08024
G1 X126.074 Y95.413 E1.02372
G1 X126.074 Y108.818 E.4203
G1 X126.082 Y108.942 E.0039
G1 X126.183 Y109.258 E.01042
G1 X126.402 Y109.533 E.011
G1 X126.701 Y109.706 E.01085
G1 X127.017 Y109.76 E.01003
G1 X156.008 Y109.76 E.909
G1 X156.008 Y137.232 E.86135
G1 X126.165 Y137.232 E.93571
G1 X98.602 Y109.67 E1.22216
G1 X98.602 Y98.915 E.33721
G1 X98.587 Y98.745 E.00535
G1 X98.414 Y98.349 E.01354
G1 X98.225 Y98.161 E.00836
G1 X97.965 Y98.023 E.00922
G1 X97.863 Y98.006 E.00324
G1 X98.072 Y98.546 F9000
G1 F1800
G1 X97.843 Y98.38 E.00889
G1 X97.659 Y98.349 E.00583
G1 X93.047 Y98.349 E.14463
G1 X93.047 Y95.036 E.10388
G1 X126.451 Y95.036 E1.04737
G1 X126.451 Y108.818 E.43212
G1 X126.456 Y108.892 E.00234
G1 X126.554 Y109.143 E.00843
G1 X126.752 Y109.318 E.0083
G1 X127.017 Y109.383 E.00854
G1 X156.385 Y109.383 E.92082
G1 X156.385 Y137.609 E.885
G1 X126.008 Y137.609 E.95243
G1 X98.225 Y109.826 E1.23196
G1 X98.225 Y98.915 E.34211
G1 X98.216 Y98.813 E.00321
G1 X98.116 Y98.585 E.00779
G1 X97.81 Y98.802 F9000
;TYPE:External perimeter
G1 F1800
G1 X97.659 Y98.726 E.00529
G1 X92.67 Y98.726 E.15646
G1 X92.67 Y94.659 E.12753
G1 X126.828 Y94.659 E1.07102
G1 X126.828 Y108.818 E.44394
G1 X126.874 Y108.941 E.00411
G1 X127.017 Y109.006 E.00493
G1 X156.762 Y109.006 E.93265
G1 X156.762 Y137.986 E.90865
G1 X125.852 Y137.986 E.96915
G1 X97.848 Y109.982 E1.24175
G1 X97.848 Y98.915 E.34701
G1 X97.829 Y98.859 E.00186
G1 X97.861 Y98.641 F9000
G1 E-3.5 F3600
;WIPE_START
G1 F7200
G1 X97.659 Y98.726 E-.10226
G1 X94.875 Y98.726 E-1.32274
;WIPE_END
G1 E-.075 F3600
G1 X155.887 Y110.65 F9000
G1 E5 F2400
;TYPE:Solid infill
;WIDTH:0.422938
G1 F1800
G1 X155.288 Y110.051 E.02676
G1 X154.751 Y110.051 E.01698
G1 X155.718 Y111.017 E.04319
G1 X155.718 Y111.555 E.01698
G1 X154.214 Y110.051 E.06721
G1 X153.676 Y110.051 E.01698
G1 X155.718 Y112.092 E.09123
G1 X155.718 Y112.63 E.01698
G1 X153.139 Y110.051 E.11524
G1 X152.601 Y110.051 E.01698
G1 X155.718 Y113.167 E.13926
G1 X155.718 Y113.705 E.01698
G1 X152.064 Y110.051 E.16327
G1 X151.526 Y110.051 E.01698
G1 X155.718 Y114.242 E.18729
G1 X155.718 Y114.779 E.01698
G1 X150.989 Y110.051 E.21131
G1 X150.452 Y110.051 E.01698
G1 X155.718 Y115.317 E.23532
G1 X155.718 Y115.854 E.01698
G1 X149.914 Y110.051 E.25934
G1 X149.377 Y110.051 E.01698
G1 X155.718 Y116.392 E.28335
G1 X155.718 Y116.929 E.01698
G1 X148.839 Y110.051 E.30737
G1 X148.302 Y110.051 E.01698
G1 X155.718 Y117.467 E.33139
G1 X155.718 Y118.004 E.01698
G1 X147.764 Y110.051 E.3554
G1 X147.227 Y110.051 E.01698
G1 X155.718 Y118.541 E.37942
G1 X155.718 Y119.079 E.01698
G1 X146.69 Y110.051 E.40343
G1 X146.152 Y110.051 E.01698
G1 X155.718 Y119.616 E.42745
G1 X155.718 Y120.154 E.01698
G1 X145.615 Y110.051 E.45147
G1 X145.077 Y110.051 E.01698
G1 X155.718 Y120.691 E.47548
G1 X155.718 Y121.228 E.01698
G1 X144.54 Y110.051 E.4995
G1 X144.002 Y110.051 E.01698
G1 X155.718 Y121.766 E.52351
G1 X155.718 Y122.303 E.01698
G1 X143.465 Y110.051 E.54753
G1 X142.928 Y110.051 E.01698
G1 X155.718 Y122.841 E.57155
G1 X155.718 Y123.378 E.01698
G1 X142.39 Y110.051 E.59556
G1 X141.853 Y110.051 E.01698
G1 X155.718 Y123.916 E.61958
G1 X155.718 Y124.453 E.01698
G1 X141.315 Y110.051 E.6436
G1 X140.778 Y110.051 E.01698
G1 X155.718 Y124.99 E.66761
G1 X155.718 Y125.528 E.01698
G1 X140.24 Y110.051 E.69163
G1 X139.703 Y110.051 E.01698
G1 X155.718 Y126.065 E.71564
G1 X155.718 Y126.603 E.01698
G1 X139.166 Y110.051 E.73966
G1 X138.628 Y110.051 E.01698
G1 X155.718 Y127.14 E.76368
G1 X155.718 Y127.678 E.01698
G1 X138.091 Y110.051 E.78769
G1 X137.553 Y110.051 E.01698
G1 X155.718 Y128.215 E.81171
G1 X155.718 Y128.752 E.01698
G1 X137.016 Y110.051 E.83572
G1 X136.478 Y110.051 E.01698
G1 X155.718 Y129.29 E.85974
G1 X155.718 Y129.827 E.01698
G1 X135.941 Y110.051 E.88376
G1 X135.404 Y110.051 E.01698
G1 X155.718 Y130.365 E.90777
G1 X155.718 Y130.902 E.01698
G1 X134.866 Y110.051 E.93179
G1 X134.329 Y110.051 E.01698
G1 X155.718 Y131.44 E.9558
G1 X155.718 Y131.977 E.01698
G1 X133.791 Y110.051 E.97982
G1 X133.254 Y110.051 E.01698
G1 X155.718 Y132.514 E1.00384
G1 X155.718 Y133.052 E.01698
G1 X132.716 Y110.051 E1.02785
G1 X132.179 Y110.051 E.01698
G1 X155.718 Y133.589 E1.05187
G1 X155.718 Y134.127 E.01698
G1 X131.642 Y110.051 E1.07588
G1 X131.104 Y110.051 E.01698
G1 X155.718 Y134.664 E1.0999
G1 X155.718 Y135.202 E.01698
G1 X130.567 Y110.051 E1.12392
G1 X130.029 Y110.051 E.01698
G1 X155.718 Y135.739 E1.14793
G1 X155.718 Y136.276 E.01698
G1 X129.492 Y110.051 E1.17195
G1 X128.954 Y110.051 E.01698
G1 X155.718 Y136.814 E1.19597
G1 X155.718 Y136.942 E.00404
G1 X155.308 Y136.942 E.01294
G1 X128.417 Y110.051 E1.20168
G1 X127.88 Y110.051 E.01698
G1 X154.771 Y136.942 E1.20168
G1 X154.233 Y136.942 E.01698
G1 X127.173 Y109.881 E1.20927
G1 E-3.5 F3600
;WIPE_START
G1 F7200
G1 X129.294 Y112.002 E-1.425
;WIPE_END
G1 E-.075 F3600
G1 X125.953 Y96.301 F9000
G1 E5 F2400
G1 F1800
G1 X125.356 Y95.703 E.02671
G1 X124.818 Y95.703 E.01698
G1 X125.784 Y96.669 E.04315
G1 X125.784 Y97.206 E.01698
G1 X124.281 Y95.703 E.06717
G1 X123.743 Y95.703 E.01698
G1 X125.784 Y97.744 E.09119
G1 X125.784 Y98.282 E.01699
G1 X123.206 Y95.703 E.11521
G1 X122.668 Y95.703 E.01698
G1 X125.784 Y98.819 E.13923
G1 X125.784 Y99.357 E.01699
G1 X122.131 Y95.703 E.16325
G1 X121.594 Y95.703 E.01698
G1 X125.784 Y99.894 E.18727
G1 X125.784 Y100.432 E.01699
G1 X121.056 Y95.703 E.21129
G1 X120.519 Y95.703 E.01698
G1 X125.785 Y100.969 E.23531
G1 X125.785 Y101.507 E.01699
G1 X119.981 Y95.703 E.25933
G1 X119.444 Y95.703 E.01698
G1 X125.785 Y102.044 E.28335
G1 X125.785 Y102.582 E.01699
G1 X118.906 Y95.703 E.30737
G1 X118.369 Y95.703 E.01698
G1 X125.785 Y103.119 E.33139
G1 X125.785 Y103.657 E.01698
G1 X117.832 Y95.703 E.35541
G1 X117.294 Y95.703 E.01698
G1 X125.785 Y104.194 E.37944
G1 X125.785 Y104.732 E.01698
G1 X116.757 Y95.703 E.40346
G1 X116.219 Y95.703 E.01698
G1 X125.785 Y105.269 E.42748
G1 X125.785 Y105.807 E.01698
G1 X115.682 Y95.703 E.4515
G1 X115.144 Y95.703 E.01698
G1 X125.785 Y106.344 E.47552
G1 X125.786 Y106.882 E.01698
G1 X114.607 Y95.703 E.49954
G1 X114.07 Y95.703 E.01698
G1 X125.786 Y107.419 E.52356
G1 X125.786 Y107.957 E.01698
G1 X113.532 Y95.703 E.54758
G1 X112.995 Y95.703 E.01698
G1 X125.956 Y108.664 E.57918
G1 E-3.5 F3600
;WIPE_START
G1 F7200
G1 X123.834 Y106.543 E-1.425
;WIPE_END
G1 E-.075 F3600
G1 X112.288 Y95.534 F9000
G1 E5 F2400
G1 F1800
G1 X125.813 Y109.059 E.6044
G1 X125.888 Y109.317 E.00849
G1 X126.079 Y109.619 E.01129
G1 X126.213 Y109.753 E.00598
G1 X126.364 Y109.865 E.00594
G1 X126.687 Y110.007 E.01116
G1 X126.773 Y110.019 E.00273
G1 X153.696 Y136.942 E1.20312
G1 X153.158 Y136.942 E.01698
G1 X111.92 Y95.703 E1.84283
G1 X111.382 Y95.703 E.01698
G1 X152.621 Y136.942 E1.84283
G1 X152.084 Y136.942 E.01698
G1 X110.845 Y95.703 E1.84283
G1 X110.308 Y95.703 E.01698
G1 X151.546 Y136.942 E1.84283
G1 X151.009 Y136.942 E.01698
G1 X109.77 Y95.703 E1.84283
G1 X109.233 Y95.703 E.01698
G1 X150.471 Y136.942 E1.84283
G1 X149.934 Y136.942 E.01698
G1 X108.695 Y95.703 E1.84283
G1 X108.158 Y95.703 E.01698
G1 X149.396 Y136.942 E1.84283
G1 X148.859 Y136.942 E.01698
G1 X107.62 Y95.703 E1.84283
G1 X107.083 Y95.703 E.01698
G1 X148.322 Y136.942 E1.84283
G1 X147.784 Y136.942 E.01698
G1 X106.546 Y95.703 E1.84283
G1 X106.008 Y95.703 E.01698
G1 X147.247 Y136.942 E1.84283
G1 X146.709 Y136.942 E.01698
G1 X105.471 Y95.703 E1.84283
G1 X104.933 Y95.703 E.01698
G1 X146.172 Y136.942 E1.84283
G1 X145.634 Y136.942 E.01698
G1 X104.396 Y95.703 E1.84283
G1 X103.859 Y95.703 E.01698
G1 X145.097 Y136.942 E1.84283
G1 X144.56 Y136.942 E.01698
G1 X103.321 Y95.703 E1.84283
G1 X102.784 Y95.703 E.01698
G1 X144.022 Y136.942 E1.84283
G1 X143.485 Y136.942 E.01698
G1 X102.246 Y95.703 E1.84283
G1 X101.709 Y95.703 E.01698
G1 X142.947 Y136.942 E1.84283
G1 X142.41 Y136.942 E.01698
G1 X101.171 Y95.703 E1.84283
G1 X100.634 Y95.703 E.01698
G1 X141.872 Y136.942 E1.84283
G1 X141.335 Y136.942 E.01698
G1 X100.097 Y95.703 E1.84283
G1 X99.559 Y95.703 E.01698
G1 X140.798 Y136.942 E1.84283
G1 X140.26 Y136.942 E.01698
G1 X99.022 Y95.703 E1.84283
G1 X98.484 Y95.703 E.01698
G1 X139.723 Y136.942 E1.84283
G1 X139.185 Y136.942 E.01698
G1 X97.947 Y95.703 E1.84283
G1 X97.409 Y95.703 E.01698
G1 X138.648 Y136.942 E1.84283
G1 X138.11 Y136.942 E.01698
G1 X96.872 Y95.703 E1.84283
G1 X96.335 Y95.703 E.01698
G1 X137.573 Y136.942 E1.84283
G1 X137.036 Y136.942 E.01698
G1 X98.881 Y98.788 E1.705
G1 X98.873 Y98.692 E.00305
G1 X98.798 Y98.439 E.00831
G1 X98.646 Y98.174 E.00967
G1 X98.399 Y97.927 E.01102
G1 X98.059 Y97.747 E.01216
G1 X97.797 Y97.703 E.00841
G1 X95.797 Y95.703 E.08937
G1 X95.26 Y95.703 E.01698
G1 X97.238 Y97.682 E.08841
G1 X96.701 Y97.682 E.01698
G1 X94.722 Y95.703 E.08841
G1 X94.185 Y95.703 E.01698
G1 X96.163 Y97.682 E.08841
G1 X95.626 Y97.682 E.01698
G1 X93.714 Y95.77 E.08543
G1 X93.714 Y96.307 E.01698
G1 X95.088 Y97.682 E.06142
G1 X94.551 Y97.682 E.01698
G1 X93.714 Y96.845 E.0374
G1 X93.714 Y97.382 E.01698
G1 X94.183 Y97.851 E.02097
G1 E-3.5 F3600
;WIPE_START
G1 F7200
G1 X93.714 Y97.382 E-.31519
G1 X93.714 Y96.845 E-.25528
G1 X94.551 Y97.682 E-.56222
G1 X95.088 Y97.682 E-.25528
G1 X95.033 Y97.627 E-.03703
;WIPE_END
G1 E-.075 F3600
G1 X98.723 Y99.167 F9000
G1 E5 F2400
G1 F1800
G1 X136.498 Y136.942 E1.68807
G1 X135.961 Y136.942 E.01698
G1 X98.893 Y99.874 E1.65647
G1 X98.893 Y100.411 E.01698
G1 X135.423 Y136.942 E1.63246
G1 X134.886 Y136.942 E.01698
G1 X98.893 Y100.949 E1.60844
G1 X98.893 Y101.486 E.01698
G1 X134.348 Y136.942 E1.58443
G1 X133.811 Y136.942 E.01698
G1 X98.893 Y102.023 E1.56041
G1 X98.893 Y102.561 E.01698
G1 X133.274 Y136.942 E1.53639
G1 X132.736 Y136.942 E.01698
G1 X98.893 Y103.098 E1.51238
G1 X98.893 Y103.636 E.01698
G1 X132.199 Y136.942 E1.48836
G1 X131.661 Y136.942 E.01698
G1 X98.893 Y104.173 E1.46434
G1 X98.893 Y104.71 E.01698
G1 X131.124 Y136.942 E1.44033
G1 X130.586 Y136.942 E.01698
G1 X98.893 Y105.248 E1.41631
G1 X98.893 Y105.785 E.01698
G1 X130.049 Y136.942 E1.3923
G1 X129.512 Y136.942 E.01698
G1 X98.893 Y106.323 E1.36828
G1 X98.893 Y106.86 E.01698
G1 X128.974 Y136.942 E1.34426
G1 X128.437 Y136.942 E.01698
G1 X98.893 Y107.398 E1.32025
G1 X98.893 Y107.935 E.01698
G1 X127.899 Y136.942 E1.29623
G1 X127.362 Y136.942 E.01698
G1 X98.893 Y108.472 E1.27222
G1 X98.893 Y109.01 E.01698
G1 X126.824 Y136.942 E1.2482
G1 X126.287 Y136.942 E.01698
G1 X98.723 Y109.378 E1.23177
; stop printing object ProjectionBox.stl id:0 copy 0
; printing object ReflectorHolder.stl id:1 copy 0
G1 E-3.5 F3600
;WIPE_START
G1 F7200
G1 X100.844 Y111.499 E-1.425
;WIPE_END
G1 E-.075 F3600
G1 X106.811 Y134.725 F9000
G1 E5 F2400
;TYPE:Perimeter
;WIDTH:0.419999
G1 F1800
G1 X106.684 Y134.659 E.00452
G1 X106.052 Y134.47 E.02068
G1 X105.554 Y134.428 E.01565
G1 X104.875 Y134.524 E.02152
G1 X104.367 Y134.722 E.01711
G1 X104.369 Y133.939 E.02456
G1 X107.873 Y130.435 E.15536
G1 X108.798 Y131.361 E.04106
G1 X107.084 Y133.075 E.076
G1 X106.979 Y133.2 E.00513
G1 X106.808 Y133.745 E.01789
G1 X106.811 Y134.665 E.02887
G1 X107.207 Y135.481 F9000
G1 F1800
G1 X106.868 Y135.191 E.01401
G1 X106.51 Y134.994 E.0128
G1 X105.957 Y134.835 E.01805
G1 X105.538 Y134.804 E.01314
G1 X104.975 Y134.888 E.01787
G1 X104.579 Y135.036 E.01325
G1 X104.236 Y135.241 E.01253
G1 X103.975 Y135.483 E.01115
G1 X103.992 Y133.782 E.05333
G1 X107.872 Y129.902 E.17206
G1 X109.332 Y131.361 E.0647
G1 X107.288 Y133.417 E.09089
G1 X107.185 Y133.744 E.01073
G1 X107.205 Y135.421 E.0526
G1 E-3.5 F3600
;WIPE_START
G1 F7200
G1 X106.868 Y135.191 E-.19422
G1 X106.51 Y134.994 E-.19385
G1 X105.957 Y134.835 E-.27352
G1 X105.538 Y134.804 E-.19911
G1 X104.975 Y134.888 E-.27075
G1 X104.579 Y135.036 E-.20068
G1 X104.411 Y135.136 E-.09286
;WIPE_END
G1 E-.075 F3600
G1 X107.117 Y138.114 F9000
G1 E5 F2400
;TYPE:External perimeter
;WIDTH:0.342166
G1 F1800
G1 X106.886 Y138.409 E.00931
;WIDTH:0.334366
G1 X106.428 Y138.749 E.01383
G1 X105.948 Y138.919 E.01234
;WIDTH:0.333348
G1 X105.383 Y138.94 E.01365
;WIDTH:0.33217
G1 X104.794 Y138.77 E.01475
G1 X104.381 Y138.495 E.01194
;WIDTH:0.334252
G1 X104.161 Y138.261 E.00777
G1 X103.888 Y137.766 E.0137
;WIDTH:0.332569
G1 X103.782 Y137.312 E.01121
;WIDTH:0.364441
G1 X103.811 Y136.705 E.01626
;WIDTH:0.39222
G1 X103.897 Y136.41 E.00892
;WIDTH:0.419999
G1 X103.982 Y136.115 E.00963
G1 X104.193 Y135.798 E.01193
G1 X104.437 Y135.56 E.0107
G1 X104.721 Y135.385 E.01046
G1 X105.038 Y135.26 E.01069
G1 X105.522 Y135.181 E.01537
G1 X105.861 Y135.2 E.01064
G1 X106.337 Y135.329 E.01544
G1 X106.786 Y135.607 E.01659
G1 X106.903 Y135.708 E.00483
G1 X107.196 Y136.116 E.01576
G1 X107.362 Y136.664 E.01796
;WIDTH:0.372324
G1 X107.402 Y137.269 E.01661
;WIDTH:0.338531
G1 X107.294 Y137.769 E.01256
;WIDTH:0.342166
G1 X107.144 Y138.061 E.00817
G1 E-3.5 F3600
;WIPE_START
G1 F7200
G1 X106.886 Y138.409 E-.20585
G1 X106.428 Y138.749 E-.27099
G1 X105.948 Y138.919 E-.24184
G1 X105.383 Y138.94 E-.26859
G1 X104.794 Y138.77 E-.29126
G1 X104.537 Y138.599 E-.14647
;WIPE_END
G1 E-.075 F3600
G1 X107.562 Y133.742 F9000
G1 E5 F2400
;WIDTH:0.419999
G1 F1800
G1 X107.568 Y135.243 E.04706
G1 X107.664 Y136.438 E.03758
;WIDTH:0.390121
G1 X107.682 Y136.69 E.0073
;WIDTH:0.360242
G1 X107.697 Y137.286 E.01571
;WIDTH:0.338168
G1 X107.591 Y137.788 E.01262
;WIDTH:0.342166
G1 X107.371 Y138.27 E.01318
G1 X107.072 Y138.632 E.01169
;WIDTH:0.334366
G1 X106.59 Y138.992 E.01458
;WIDTH:0.343015
G1 X106.204 Y139.158 E.01049
;WIDTH:0.348337
G1 X105.766 Y139.238 E.0113
G1 X105.282 Y139.218 E.01229
;WIDTH:0.33217
G1 X104.701 Y139.044 E.01458
;WIDTH:0.343342
G1 X104.344 Y138.843 E.01024
G1 X104.01 Y138.54 E.01127
;WIDTH:0.348897
G1 X103.738 Y138.142 E.01227
G1 X103.536 Y137.614 E.0144
;WIDTH:0.346759
G1 X103.479 Y137.142 E.01199
G1 X103.479 Y137.133 E.00023
;WIDTH:0.375827
G1 X103.497 Y136.609 E.01453
;WIDTH:0.419999
