; generated by PrusaSlicer 2.5.0+MacOS-x64 on 2023-04-25 at 05:18:57 UTC

; 

; external perimeters extrusion width = 0.42mm
; perimeters extrusion width = 0.44mm
; infill extrusion width = 0.44mm
; solid infill extrusion width = 0.44mm
; top infill extrusion width = 0.40mm
; first layer extrusion width = 0.42mm

; external perimeters extrusion width = 0.42mm
; perimeters extrusion width = 0.44mm
; infill extrusion width = 0.44mm
; solid infill extrusion width = 0.44mm
; top infill extrusion width = 0.40mm
; first layer extrusion width = 0.42mm

M107
;TYPE:Custom
G90 ; use absolute coordinates
M83 ; extruder relative mode
M140 S60 ; set final bed temp
M104 S150 ; set temporary nozzle temp to prevent oozing during homing
G4 S10 ; allow partial nozzle warmup
G28 ; home all axis
G29 ; ABL
G1 Z50 F240
G1 X2 Y10 F3000
M104 S205 ; set final nozzle temp
M190 S60 ; wait for bed temp to stabilize
M109 S205 ; wait for nozzle temp to stabilize
G1 Z0.28 F240
G92 E0
G1 Y140 E10 F1500 ; prime the nozzle
G1 X2.3 F5000
G92 E0
G1 Y10 E10 F1200 ; prime the nozzle
G92 E0
G21 ; set units to millimeters
G90 ; use absolute coordinates
M83 ; use relative distances for extrusion
; Filament gcode
M107
;LAYER_CHANGE
;Z:0.2
;HEIGHT:0.2
;BEFORE_LAYER_CHANGE
G92 E0
;0.2


G1 E-5 F3600
G1 Z.2 F9000
;AFTER_LAYER_CHANGE
;0.2
G1 X48.142 Y57.681
G1 E5 F2400
M204 S500
;TYPE:Skirt/Brim
;WIDTH:0.42
G1 F1800
G1 X49.54 Y56.84 E.05115
G1 X51.032 Y56.729 E.04689
G1 X179.885 Y76.076 E4.0854
G1 X181.392 Y76.7 E.05115
G1 X182.431 Y77.959 E.05115
G1 X182.761 Y79.415 E.04683
G1 X182.761 Y110.115 E.96258
G1 X182.694 Y110.783 E.02106
G1 X172.627 Y160.655 E1.59522
G1 X171.927 Y162.128 E.05115
G1 X170.618 Y163.102 E.05115
G1 X169.316 Y163.363 E.04163
G1 X68.316 Y163.363 E3.16678
G1 X66.733 Y162.969 E.05115
G1 X65.928 Y162.374 E.03138
G1 X38.228 Y134.674 E1.22826
G1 X37.387 Y133.276 E.05115
G1 X37.239 Y132.286 E.03138
G1 X37.256 Y114.445 E.5594
G1 X42.324 Y64.574 E1.57172
G1 X43.296 Y62.527 E.07104
G1 X48.1 Y57.723 E.21301
; printing object ProjectionBox.stl id:0 copy 0
G1 E-3.5 F3600
;WIPE_START
G1 F7200
G1 X49.54 Y56.84 E-.80263
G1 X50.847 Y56.743 E-.62237
;WIPE_END
G1 E-.075 F3600
G1 X49.782 Y65.551 F9000
G1 E5 F2400
;TYPE:Perimeter
;WIDTH:0.419999
G1 F1800
G1 X50.021 Y65.808 E.01102
G1 X50.562 Y65.979 E.0178
G1 X77.32 Y65.979 E.83896
G1 X77.32 Y79.537 E.42508
G1 X77.328 Y79.661 E.0039
G1 X77.429 Y79.977 E.01042
G1 X77.648 Y80.252 E.011
G1 X77.947 Y80.425 E.01085
G1 X78.262 Y80.479 E.01003
G1 X178.32 Y80.479 E3.13722
G1 X178.32 Y109.051 E.89584
G1 X78.825 Y109.051 E3.11959
G1 X51.748 Y81.974 E1.20062
G1 X51.748 Y69.865 E.37968
G1 X51.694 Y69.551 E.01
G1 X51.472 Y69.198 E.01306
G1 X47.189 Y64.915 E.18992
G1 X50.53 Y61.574 E.14816
G1 X51.077 Y62.121 E.02426
G1 X49.896 Y63.303 E.0524
G1 X49.791 Y63.428 E.00513
G1 X49.62 Y63.969 E.0178
G1 X49.62 Y65.037 E.03347
G1 X49.764 Y65.494 E.01502
G1 X50.113 Y65.362 F9000
G1 F1800
G1 X50.237 Y65.5 E.00584
G1 X50.562 Y65.602 E.01068
G1 X77.697 Y65.602 E.85078
G1 X77.697 Y79.537 E.4369
G1 X77.702 Y79.611 E.00234
G1 X77.799 Y79.862 E.00843
G1 X77.998 Y80.037 E.0083
G1 X78.262 Y80.102 E.00854
G1 X178.697 Y80.102 E3.14904
G1 X178.697 Y109.428 E.91949
G1 X78.668 Y109.428 E3.13631
G1 X51.371 Y82.131 E1.21042
G1 X51.371 Y69.865 E.38458
G1 X51.338 Y69.676 E.006
G1 X51.205 Y69.465 E.00784
G1 X46.655 Y64.915 E.20174
G1 X50.53 Y61.041 E.17181
G1 X51.611 Y62.121 E.04791
G1 X50.099 Y63.644 E.06728
G1 X49.997 Y63.969 E.01068
G1 X49.997 Y64.915 E.02966
G1 X50.072 Y65.317 E.01282
G1 X50.408 Y65.145 F9000
;TYPE:External perimeter
G1 F1800
G1 X50.562 Y65.225 E.00545
G1 X78.074 Y65.225 E.8626
G1 X78.074 Y79.537 E.44873
G1 X78.119 Y79.66 E.00411
G1 X78.262 Y79.725 E.00493
G1 X179.074 Y79.725 E3.16087
G1 X179.074 Y109.805 E.94314
G1 X78.512 Y109.805 E3.15303
G1 X50.994 Y82.287 E1.22021
G1 X50.994 Y69.865 E.38948
G1 X50.939 Y69.732 E.00452
G1 X46.122 Y64.915 E.21357
G1 X50.53 Y60.507 E.19546
G1 X52.144 Y62.121 E.07156
G1 X50.429 Y63.836 E.07604
G1 X50.374 Y63.969 E.00452
G1 X50.374 Y64.915 E.02966
G1 X50.399 Y65.086 E.0054
G1 X50.355 Y65.311 F9000
G1 E-3.5 F3600
;WIPE_START
G1 F7200
G1 X50.562 Y65.225 E-.10201
G1 X53.348 Y65.225 E-1.32299
;WIPE_END
G1 E-.075 F3600
G1 X177.435 Y80.6 F9000
G1 E5 F2400
;TYPE:Solid infill
;WIDTH:0.42079
G1 F1800
G1 X178.029 Y81.194 E.02641
G1 X178.029 Y81.729 E.01679
G1 X177.07 Y80.77 E.04262
G1 X176.536 Y80.77 E.01679
G1 X178.029 Y82.263 E.06636
G1 X178.029 Y82.797 E.01679
G1 X176.001 Y80.77 E.09011
G1 X175.467 Y80.769 E.01679
G1 X178.029 Y83.332 E.11386
G1 X178.029 Y83.866 E.01679
G1 X174.932 Y80.769 E.13761
G1 X174.398 Y80.769 E.01679
G1 X178.029 Y84.401 E.16135
G1 X178.029 Y84.935 E.01679
G1 X173.864 Y80.769 E.1851
G1 X173.329 Y80.769 E.01679
G1 X178.029 Y85.469 E.20885
G1 X178.029 Y86.004 E.01679
G1 X172.795 Y80.769 E.2326
G1 X172.26 Y80.769 E.01679
G1 X178.029 Y86.538 E.25635
G1 X178.029 Y87.073 E.01679
G1 X171.726 Y80.769 E.28009
G1 X171.191 Y80.769 E.01679
G1 X178.029 Y87.607 E.30384
G1 X178.029 Y88.141 E.01679
G1 X170.657 Y80.769 E.32759
G1 X170.122 Y80.769 E.01679
G1 X178.029 Y88.676 E.35134
G1 X178.029 Y89.21 E.01679
G1 X169.588 Y80.769 E.37508
G1 X169.054 Y80.769 E.01679
G1 X178.029 Y89.745 E.39883
G1 X178.029 Y90.279 E.01679
G1 X168.519 Y80.769 E.42258
G1 X167.985 Y80.769 E.01679
G1 X178.029 Y90.813 E.44633
G1 X178.029 Y91.348 E.01679
G1 X167.45 Y80.769 E.47007
G1 X166.916 Y80.769 E.01679
G1 X178.029 Y91.882 E.49382
G1 X178.029 Y92.416 E.01679
G1 X166.381 Y80.769 E.51757
G1 X165.847 Y80.769 E.01679
G1 X178.029 Y92.951 E.54132
G1 X178.029 Y93.485 E.01679
G1 X165.312 Y80.768 E.56507
G1 X164.778 Y80.768 E.01679
G1 X178.029 Y94.02 E.58881
G1 X178.029 Y94.554 E.01679
G1 X164.244 Y80.768 E.61256
G1 X163.709 Y80.768 E.01679
G1 X178.029 Y95.088 E.63631
G1 X178.029 Y95.623 E.01679
G1 X163.175 Y80.768 E.66006
G1 X162.64 Y80.768 E.01679
G1 X178.029 Y96.157 E.6838
G1 X178.029 Y96.692 E.01679
G1 X162.106 Y80.768 E.70755
G1 X161.571 Y80.768 E.01679
G1 X178.029 Y97.226 E.7313
G1 X178.029 Y97.76 E.01679
G1 X161.037 Y80.768 E.75505
G1 X160.503 Y80.768 E.01679
G1 X178.029 Y98.295 E.77879
G1 X178.029 Y98.829 E.01679
G1 X159.968 Y80.768 E.80254
G1 X159.434 Y80.768 E.01679
G1 X178.029 Y99.364 E.82629
G1 X178.029 Y99.898 E.01679
G1 X158.899 Y80.768 E.85004
G1 X158.365 Y80.768 E.01679
G1 X178.029 Y100.432 E.87379
G1 X178.029 Y100.967 E.01679
G1 X157.83 Y80.768 E.89753
G1 X157.296 Y80.768 E.01679
G1 X178.029 Y101.501 E.92128
G1 X178.029 Y102.035 E.01679
G1 X156.761 Y80.768 E.94503
G1 X156.227 Y80.768 E.01679
G1 X178.029 Y102.57 E.96878
G1 X178.029 Y103.104 E.01679
G1 X155.693 Y80.768 E.99252
G1 X155.158 Y80.767 E.01679
G1 X178.029 Y103.639 E1.01627
G1 X178.029 Y104.173 E.01679
G1 X154.624 Y80.767 E1.04002
G1 X154.089 Y80.767 E.01679
G1 X178.029 Y104.707 E1.06377
G1 X178.029 Y105.242 E.01679
G1 X153.555 Y80.767 E1.08752
G1 X153.02 Y80.767 E.01679
G1 X178.029 Y105.776 E1.11126
G1 X178.029 Y106.311 E.01679
G1 X152.486 Y80.767 E1.13501
G1 X151.951 Y80.767 E.01679
G1 X178.029 Y106.845 E1.15876
G1 X178.029 Y107.379 E.01679
G1 X151.417 Y80.767 E1.18251
G1 X150.883 Y80.767 E.01679
G1 X178.029 Y107.914 E1.20625
G1 X178.029 Y108.448 E.01679
G1 X150.348 Y80.767 E1.23
G1 X149.814 Y80.767 E.01679
G1 X177.807 Y108.761 E1.24389
G1 X177.273 Y108.761 E.01679
G1 X149.279 Y80.767 E1.2439
G1 X148.745 Y80.767 E.01679
G1 X176.739 Y108.761 E1.2439
G1 X176.204 Y108.761 E.01679
G1 X148.21 Y80.767 E1.2439
G1 X147.676 Y80.767 E.01679
G1 X175.67 Y108.761 E1.2439
G1 X175.136 Y108.761 E.01679
G1 X147.141 Y80.767 E1.2439
G1 X146.607 Y80.767 E.01679
G1 X174.601 Y108.761 E1.24391
G1 X174.067 Y108.761 E.01679
G1 X146.073 Y80.767 E1.24391
G1 X145.538 Y80.767 E.01679
G1 X173.532 Y108.761 E1.24391
G1 X172.998 Y108.761 E.01679
G1 X145.004 Y80.766 E1.24391
G1 X144.469 Y80.766 E.01679
G1 X172.464 Y108.761 E1.24392
G1 X171.929 Y108.761 E.01679
G1 X143.935 Y80.766 E1.24392
G1 X143.4 Y80.766 E.01679
G1 X171.395 Y108.761 E1.24392
G1 X170.86 Y108.761 E.01679
G1 X142.866 Y80.766 E1.24392
G1 X142.331 Y80.766 E.01679
G1 X170.326 Y108.761 E1.24393
G1 X169.792 Y108.761 E.01679
G1 X141.797 Y80.766 E1.24393
G1 X141.263 Y80.766 E.01679
G1 X169.257 Y108.761 E1.24393
G1 X168.723 Y108.761 E.01679
G1 X140.728 Y80.766 E1.24393
G1 X140.194 Y80.766 E.01679
G1 X168.188 Y108.761 E1.24394
G1 X167.654 Y108.761 E.01679
G1 X139.659 Y80.766 E1.24394
G1 X139.125 Y80.766 E.01679
G1 X167.12 Y108.761 E1.24394
G1 X166.585 Y108.761 E.01679
G1 X138.59 Y80.766 E1.24394
G1 X138.056 Y80.766 E.01679
G1 X166.051 Y108.761 E1.24394
G1 X165.517 Y108.761 E.01679
G1 X137.522 Y80.766 E1.24395
G1 X136.987 Y80.766 E.01679
G1 X164.982 Y108.761 E1.24395
G1 X164.448 Y108.761 E.01679
G1 X136.453 Y80.766 E1.24395
G1 X135.918 Y80.766 E.01679
G1 X163.913 Y108.761 E1.24395
G1 X163.379 Y108.761 E.01679
G1 X135.384 Y80.766 E1.24396
G1 X134.849 Y80.765 E.01679
G1 X162.845 Y108.761 E1.24396
G1 X162.31 Y108.761 E.01679
G1 X134.315 Y80.765 E1.24396
G1 X133.78 Y80.765 E.01679
G1 X161.776 Y108.761 E1.24396
G1 X161.241 Y108.761 E.01679
G1 X133.246 Y80.765 E1.24397
G1 X132.712 Y80.765 E.01679
G1 X160.707 Y108.761 E1.24397
G1 X160.173 Y108.761 E.01679
G1 X132.177 Y80.765 E1.24397
G1 X131.643 Y80.765 E.01679
G1 X159.638 Y108.761 E1.24397
G1 X159.104 Y108.761 E.01679
G1 X131.108 Y80.765 E1.24397
G1 X130.574 Y80.765 E.01679
G1 X158.569 Y108.761 E1.24398
G1 X158.035 Y108.761 E.01679
G1 X130.039 Y80.765 E1.24398
G1 X129.505 Y80.765 E.01679
G1 X157.501 Y108.761 E1.24398
G1 X156.966 Y108.761 E.01679
G1 X128.97 Y80.765 E1.24398
G1 X128.436 Y80.765 E.01679
G1 X156.432 Y108.761 E1.24399
G1 X155.898 Y108.761 E.01679
G1 X127.902 Y80.765 E1.24399
G1 X127.367 Y80.765 E.01679
G1 X155.363 Y108.761 E1.24399
G1 X154.829 Y108.761 E.01679
G1 X126.833 Y80.765 E1.24399
G1 X126.298 Y80.765 E.01679
G1 X154.294 Y108.761 E1.244
G1 X153.76 Y108.761 E.01679
G1 X125.764 Y80.765 E1.244
G1 X125.229 Y80.765 E.01679
G1 X153.226 Y108.761 E1.244
G1 X152.691 Y108.761 E.01679
G1 X124.695 Y80.764 E1.244
G1 X124.16 Y80.764 E.01679
G1 X152.157 Y108.761 E1.24401
G1 X151.622 Y108.761 E.01679
G1 X123.626 Y80.764 E1.24401
G1 X123.092 Y80.764 E.01679
G1 X151.088 Y108.761 E1.24401
G1 X150.554 Y108.761 E.01679
G1 X122.557 Y80.764 E1.24401
G1 X122.023 Y80.764 E.01679
G1 X150.019 Y108.761 E1.24401
G1 X149.485 Y108.761 E.01679
G1 X121.488 Y80.764 E1.24402
G1 X120.954 Y80.764 E.01679
G1 X148.95 Y108.761 E1.24402
G1 X148.416 Y108.761 E.01679
G1 X120.419 Y80.764 E1.24402
G1 X119.885 Y80.764 E.01679
G1 X147.882 Y108.761 E1.24402
G1 X147.347 Y108.761 E.01679
G1 X119.351 Y80.764 E1.24403
G1 X118.816 Y80.764 E.01679
G1 X146.813 Y108.761 E1.24403
G1 X146.279 Y108.761 E.01679
G1 X118.282 Y80.764 E1.24403
G1 X117.747 Y80.764 E.01679
G1 X145.744 Y108.761 E1.24403
G1 X145.21 Y108.761 E.01679
G1 X117.213 Y80.764 E1.24404
G1 X116.678 Y80.764 E.01679
G1 X144.675 Y108.761 E1.24404
G1 X144.141 Y108.761 E.01679
G1 X116.144 Y80.764 E1.24404
G1 X115.609 Y80.764 E.01679
G1 X143.607 Y108.761 E1.24404
G1 X143.072 Y108.761 E.01679
G1 X115.075 Y80.764 E1.24404
G1 X114.541 Y80.763 E.01679
G1 X142.538 Y108.761 E1.24405
G1 X142.003 Y108.761 E.01679
G1 X114.006 Y80.763 E1.24405
G1 X113.472 Y80.763 E.01679
G1 X141.469 Y108.761 E1.24405
G1 X140.935 Y108.761 E.01679
G1 X112.937 Y80.763 E1.24405
G1 X112.403 Y80.763 E.01679
G1 X140.4 Y108.761 E1.24406
G1 X139.866 Y108.761 E.01679
G1 X111.868 Y80.763 E1.24406
G1 X111.334 Y80.763 E.01679
G1 X139.331 Y108.761 E1.24406
G1 X138.797 Y108.761 E.01679
G1 X110.799 Y80.763 E1.24406
G1 X110.265 Y80.763 E.01679
G1 X138.263 Y108.761 E1.24407
G1 X137.728 Y108.761 E.01679
G1 X109.731 Y80.763 E1.24407
G1 X109.196 Y80.763 E.01679
G1 X137.194 Y108.761 E1.24407
G1 X136.66 Y108.761 E.01679
G1 X108.662 Y80.763 E1.24407
G1 X108.127 Y80.763 E.01679
G1 X136.125 Y108.761 E1.24408
G1 X135.591 Y108.761 E.01679
G1 X107.593 Y80.763 E1.24408
G1 X107.058 Y80.763 E.01679
G1 X135.056 Y108.761 E1.24408
G1 X134.522 Y108.761 E.01679
G1 X106.524 Y80.763 E1.24408
G1 X105.989 Y80.763 E.01679
G1 X133.988 Y108.761 E1.24408
G1 X133.453 Y108.761 E.01679
G1 X105.455 Y80.763 E1.24409
G1 X104.921 Y80.763 E.01679
G1 X132.919 Y108.761 E1.24409
G1 X132.384 Y108.761 E.01679
G1 X104.386 Y80.762 E1.24409
G1 X103.852 Y80.762 E.01679
G1 X131.85 Y108.761 E1.24409
G1 X131.316 Y108.761 E.01679
G1 X103.317 Y80.762 E1.2441
G1 X102.783 Y80.762 E.01679
G1 X130.781 Y108.761 E1.2441
G1 X130.247 Y108.761 E.01679
G1 X102.248 Y80.762 E1.2441
G1 X101.714 Y80.762 E.01679
G1 X129.712 Y108.761 E1.2441
G1 X129.178 Y108.761 E.01679
G1 X101.18 Y80.762 E1.24411
G1 X100.645 Y80.762 E.01679
G1 X128.644 Y108.761 E1.24411
G1 X128.109 Y108.761 E.01679
G1 X100.111 Y80.762 E1.24411
G1 X99.576 Y80.762 E.01679
G1 X127.575 Y108.761 E1.24411
G1 X127.041 Y108.761 E.01679
G1 X99.042 Y80.762 E1.24411
G1 X98.507 Y80.762 E.01679
G1 X126.506 Y108.761 E1.24412
G1 X125.972 Y108.761 E.01679
G1 X97.973 Y80.762 E1.24412
G1 X97.438 Y80.762 E.01679
G1 X125.437 Y108.761 E1.24412
G1 X124.903 Y108.761 E.01679
G1 X96.904 Y80.762 E1.24412
G1 X96.37 Y80.762 E.01679
G1 X124.369 Y108.761 E1.24413
G1 X123.834 Y108.761 E.01679
G1 X95.835 Y80.762 E1.24413
G1 X95.301 Y80.762 E.01679
G1 X123.3 Y108.761 E1.24413
G1 X122.765 Y108.761 E.01679
G1 X94.766 Y80.762 E1.24413
G1 X94.232 Y80.761 E.01679
G1 X122.231 Y108.761 E1.24414
G1 X121.697 Y108.761 E.01679
G1 X93.697 Y80.761 E1.24414
G1 X93.163 Y80.761 E.01679
G1 X121.162 Y108.761 E1.24414
G1 X120.628 Y108.761 E.01679
G1 X92.628 Y80.761 E1.24414
G1 X92.094 Y80.761 E.01679
G1 X120.093 Y108.761 E1.24415
G1 X119.559 Y108.761 E.01679
G1 X91.56 Y80.761 E1.24415
G1 X91.025 Y80.761 E.01679
G1 X119.025 Y108.761 E1.24415
G1 X118.49 Y108.761 E.01679
G1 X90.491 Y80.761 E1.24415
G1 X89.956 Y80.761 E.01679
G1 X117.956 Y108.761 E1.24415
G1 X117.422 Y108.761 E.01679
G1 X89.422 Y80.761 E1.24416
G1 X88.887 Y80.761 E.01679
G1 X116.887 Y108.761 E1.24416
G1 X116.353 Y108.761 E.01679
G1 X88.353 Y80.761 E1.24416
G1 X87.818 Y80.761 E.01679
G1 X115.818 Y108.761 E1.24416
G1 X115.284 Y108.761 E.01679
G1 X87.284 Y80.761 E1.24417
G1 X86.75 Y80.761 E.01679
G1 X114.75 Y108.761 E1.24417
G1 X114.215 Y108.761 E.01679
G1 X86.215 Y80.761 E1.24417
G1 X85.681 Y80.761 E.01679
G1 X113.681 Y108.761 E1.24417
G1 X113.146 Y108.761 E.01679
G1 X85.146 Y80.761 E1.24418
G1 X84.612 Y80.761 E.01679
G1 X112.612 Y108.761 E1.24418
G1 X112.078 Y108.761 E.01679
G1 X84.077 Y80.761 E1.24418
G1 X83.543 Y80.76 E.01679
G1 X111.543 Y108.761 E1.24418
G1 X111.009 Y108.761 E.01679
G1 X83.009 Y80.76 E1.24418
G1 X82.474 Y80.76 E.01679
G1 X110.474 Y108.761 E1.24419
G1 X109.94 Y108.761 E.01679
G1 X81.94 Y80.76 E1.24419
G1 X81.405 Y80.76 E.01679
G1 X109.406 Y108.761 E1.24419
G1 X108.871 Y108.761 E.01679
G1 X80.871 Y80.76 E1.24419
G1 X80.336 Y80.76 E.01679
G1 X108.337 Y108.761 E1.2442
G1 X107.803 Y108.761 E.01679
G1 X79.802 Y80.76 E1.2442
G1 X79.267 Y80.76 E.01679
G1 X107.268 Y108.761 E1.2442
G1 X106.734 Y108.761 E.01679
G1 X78.563 Y80.59 E1.25174
G1 E-3.5 F3600
;WIPE_START
G1 F7200
G1 X80.685 Y82.712 E-1.425
;WIPE_END
G1 E-.075 F3600
G1 X76.364 Y66.1 F9000
G1 E5 F2400
G1 F1800
G1 X77.029 Y66.765 E.02957
G1 X77.029 Y67.3 E.01679
G1 X75.999 Y66.27 E.04578
G1 X75.465 Y66.27 E.01679
G1 X77.03 Y67.834 E.06953
G1 X77.03 Y68.369 E.01679
G1 X74.931 Y66.27 E.09327
G1 X74.396 Y66.27 E.01679
G1 X77.03 Y68.903 E.11702
G1 X77.03 Y69.438 E.01679
G1 X73.862 Y66.27 E.14077
G1 X73.327 Y66.27 E.01679
G1 X77.03 Y69.972 E.16452
G1 X77.03 Y70.507 E.01679
G1 X72.793 Y66.27 E.18827
G1 X72.259 Y66.27 E.01679
G1 X77.03 Y71.041 E.21202
G1 X77.03 Y71.576 E.01679
G1 X71.724 Y66.27 E.23577
G1 X71.19 Y66.27 E.01679
G1 X77.03 Y72.11 E.25952
G1 X77.03 Y72.645 E.01679
G1 X70.655 Y66.27 E.28327
G1 X70.121 Y66.27 E.01679
G1 X77.031 Y73.179 E.30702
G1 X77.031 Y73.714 E.01679
G1 X69.587 Y66.27 E.33077
G1 X69.052 Y66.27 E.01679
G1 X77.031 Y74.248 E.35452
G1 X77.031 Y74.783 E.01679
G1 X68.518 Y66.27 E.37827
G1 X67.983 Y66.27 E.01679
G1 X77.031 Y75.317 E.40202
G1 X77.031 Y75.852 E.01679
G1 X67.449 Y66.27 E.42577
G1 X66.915 Y66.27 E.01679
G1 X77.031 Y76.386 E.44952
G1 X77.031 Y76.921 E.01679
